build/img/sprite/vk.svg

<svg width="12" height="14" viewBox="0 0 12 14" fill="none" xmlns="http://www.w3.org/2000/svg">
<path d="M11.1804 9.28625C11.1804 9.93665 11.0574 10.5079 10.8113 11.0001C10.5652 11.4923 10.2341 11.8995 9.81812 12.2218C9.32593 12.6085 8.78394 12.8839 8.19214 13.048C7.6062 13.212 6.85913 13.2941 5.95093 13.2941H0.712646V0.207153H5.33569C6.29663 0.207153 7.02319 0.245239 7.51538 0.321411C8.01343 0.391724 8.47925 0.544067 8.91284 0.778442C9.38159 1.0304 9.73022 1.36731 9.95874 1.78918C10.1931 2.21106 10.3103 2.69739 10.3103 3.24817C10.3103 3.88684 10.1492 4.4552 9.8269 4.95325C9.5105 5.45129 9.07104 5.8175 8.50854 6.05188V6.12219C9.31714 6.29211 9.9646 6.64075 10.4509 7.16809C10.9373 7.68958 11.1804 8.39563 11.1804 9.28625ZM6.97046 3.90735C6.97046 3.69641 6.91479 3.47961 6.80347 3.25696C6.698 3.0343 6.53101 2.87317 6.30249 2.77356C6.08569 2.67981 5.82788 2.63 5.52905 2.62415C5.23608 2.61243 4.79663 2.60657 4.21069 2.60657H3.98218V5.37512H4.39526C4.95776 5.37512 5.35034 5.36926 5.573 5.35754C5.80151 5.34583 6.03589 5.2843 6.27612 5.17297C6.53979 5.04993 6.72144 4.88 6.82104 4.66321C6.92065 4.44641 6.97046 4.19446 6.97046 3.90735ZM7.79663 9.22473C7.79663 8.82043 7.7146 8.50403 7.55054 8.27551C7.38647 8.047 7.14038 7.87415 6.81226 7.75696C6.61304 7.68079 6.33765 7.63977 5.98608 7.63391C5.64038 7.62219 5.17456 7.61633 4.58862 7.61633H3.98218V10.8947H4.15796C5.01343 10.8947 5.60522 10.8888 5.93335 10.8771C6.26147 10.8654 6.59546 10.7863 6.9353 10.6398C7.23413 10.5109 7.45093 10.3234 7.58569 10.0773C7.72632 9.82532 7.79663 9.54114 7.79663 9.22473Z" fill="#3E9CDC"/>
</svg>

<svg width="12" height="14" viewBox="0 0 12 14" fill="none" xmlns="http://www.w3.org/2000/svg"><path d="M11.18 9.286c0 .65-.123 1.222-.369 1.714s-.577.9-.993 1.222a4.598 4.598 0 0 1-1.626.826c-.586.164-1.333.246-2.241.246H.713V.207h4.623c.96 0 1.687.038 2.18.114.497.07.963.223 1.397.457.469.252.817.59 1.046 1.011.234.422.351.908.351 1.46 0 .638-.16 1.206-.483 1.704a2.793 2.793 0 0 1-1.318 1.099v.07c.808.17 1.456.519 1.942 1.046.486.522.73 1.228.73 2.118ZM6.97 3.907c0-.21-.055-.427-.167-.65a.961.961 0 0 0-.5-.483 2.042 2.042 0 0 0-.774-.15 36.06 36.06 0 0 0-1.318-.017h-.229v2.768h.413c.563 0 .955-.006 1.178-.017.229-.012.463-.074.703-.185.264-.123.445-.293.545-.51.1-.217.15-.469.15-.756Zm.827 5.318c0-.405-.082-.721-.246-.95-.165-.228-.41-.4-.739-.518-.199-.076-.474-.117-.826-.123a43.437 43.437 0 0 0-1.397-.018h-.607v3.279h.176c.855 0 1.447-.006 1.775-.018.328-.012.662-.09 1.002-.237.3-.13.516-.317.65-.563.141-.252.212-.536.212-.852Z" fill="#3E9CDC"/></svg>
